X:1
T:Wiegenlied
T:Karl Friedrich Curschmann
T:Hoffmann von Fallersleben
T:Wiegenlied
T:CPDL   —   Creative Commons Attribution Non Commercial 3.0
C:Karl Friedrich Curschmann
Z:Hoffmann von Fallersleben
Z:CPDL   —   Creative Commons Attribution Non Commercial 3.0
%%score [ ( 1 2 ) ( 3 4 ) ]
L:1/8
Q:1/4=90
M:3/4
K:E
V:1 treble nm="Sopran\nAlt"
V:2 treble 
V:3 bass nm="Tenor\nBass"
V:4 bass 
V:1
"^Ein wenig bewegt und sehr zart"!p! E2 |!<(! (E2 G2)!<)!!>(! F2 | E4!>)! G2 | %3
w: 1\-4. So|schlaf _ in|Ruh, so|
w: |||
w: |||
w: |||
!<(! B4!<)! (3^AB!>(!c | B4!>)! | B2 |"^cresc." c4 d2 | (e2 d2) c2 | B4 A2 |!>(! (G2!>)! A2) B2 | %10
w: schlaf in _ _|Ruh!|1. Die|Zeit- los *|und _ die|Tul- pe|nickt, _ auf|
w: ||2. Die|Lämm- lein|sind _ jetzt|müd' und|satt, _ sie|
w: ||3. Der|Vo- gel|fliegt _ zum|Dor- nen-|strauch, _ jetzt|
w: ||4. Die|Ster- ne|leuch- * ten|hell und|klar, _ es|
 c4"^cresc." d2 | (e2 d2) c2 | B4 A2 |!>(! G4!>)!!pp! G2 | (d3 c) d2 | e4 dc | (^B3 c) d2 | %17
w: dass der|Schlaf _ sie|auch er-|quickt. 1\-4. Die|Äug- * lein|zu mein *|Kind- * lein|
w: su- chen|ih- * re|La- ger-|statt. *||||
w: ist es|Nacht, _ drum|schlaf' ich|auch. *||||
w: kommt von|dort _ der|En- gel|Schar. *||||
!<(! e4!<)! e2 | (f3 e) dc |!>(! (B2!>)! e2)"^dim." G2 | (F3 G) F2 | !fermata!E4 |] %22
w: du, nun|schlaf, * nun *|schlaf, * nun|schlaf * in|Ruh!|
w: |||||
w: |||||
w: |||||
V:2
 B,2 | B,4 D2 | E4 E2 | D4 E2 | D4 | D2 | E4 E2 | E4 E2 | (E2 C2) D2 | E4 E2 | (E2 A2) F2 | E4 G2 | %12
 F4 F2 | F4 F2 | F4 F2 | (E2 G2) G2 | G4 GF | (E2 G2) G2 | A4 E2 | E4 E2 | D4 D2 | E4 |] %22
V:3
!p! G,2 |!<(! (G,2 B,2)!<)!!>(! A,2 | G,4!>)! B,2 |!<(! (B,2 F,2)!<)!!>(! =G,2!>)! | F,4 | F,2 | %6
"^cresc." A,4 A,2 | B,4 B,2 | C4 B,2 | B,4 B,2 | A,4"^cresc." B,2 | (B,2 E2) E2 | (F2 B,2) B,2 | %13
!>(! ^B,4!>)!!pp! B,2 | (^B,3 ^A,) B,2 | C4 E2 | %16
"^* Zeitlos: (veraltet) Herbstzeitlose" (D3 C) ^B,2 |!<(! C4!<)! C2 | C4 A,2 | %19
!>(! G,4!>)!"^dim." B,2 | (A,3 B,) A,2 | !fermata!G,4 |] %22
V:4
 E,2 | E,4 B,,2 | E,4 E,2 | B,,4 B,,2 | B,,4 | B,,2 | A,,4 A,2 | G,4 G,2 | F,4 B,,2 | %9
 (E,2 F,2) G,2 | A,4 A,2 | G,4 E,2 | D,4 D,2 | (D,2 G,,2) G,,2 | G,4 G,2 | (C,2 E,2) E,2 | %16
 G,4 G,,2 | C,4 C,2 | A,,4 A,,2 | B,,4 B,,2 | B,,4 B,,2 | E,4 |] %22

